X:795
T:Clean Pea Strae
B:Kerr's Merry Melodies 
Z:Nigel Gatherer
M:4/4
L:1/8
K:D
A | d2 f2 gefd | eAAB =c3 A | d2 f2 gefd | egfe d3 :|
f | afdf  afdf | eAAB =c3 f | afdf  afdf | egfe d3 
f | afdf  afdf | eAAB =c3 f | afge  fdec | Agfe d3 |]
